X:1
T:Ever to the Right
T:Ever to the Right
T:Tullius Clinton O’Kane
T:Isaac W. Sanborn, 1870
T:Public Domain Courtesy of the Cyber Hymnal™
C:Tullius Clinton O’Kane
Z:Public Domain
Z:Courtesy of the Cyber Hymnal™
%%score ( 1 2 ) ( 3 4 )
L:1/8
Q:1/4=88
M:2/4
K:Bb
V:1 treble 
V:2 treble 
V:3 bass 
V:4 bass 
V:1
 [FB]<[FB] [FB]>[FB] | .[FB]2 .F2 | [EG]<[EG] [EA]>[EA] | [DB]3 z | [Fd][Fd] [Fd][Fd] | %5
w: 1.~Ev- er to the|right, boys,|Ev- er to the|right!|Give a rea- dy|
w: 2.~Ev- er to the|right, boys,|Ev- er to the|right!|Ne- ver let your|
w: 3.~Ev- er to the|right, boys,|Ev- er to the|right!|No known du- ty|
w: 4.~Ev- er to the|right, boys,|Ev- er to the|right!|Speak the truth, the|
w: 5.~Ev- er to the|right, boys,|Ev- er to the|right!|Time is gold; do|
w: 6.~Ev- er to the|right, boys,|Ev- er to the|right!|Seek the Sav- ior|
 [FB][FA] [EG]2 | [=Ec][Ec] [Ec][FB] | [CA][CG] F2 | [FB]<[FB] [Fc]>[Fc] | [Fd]3 z | %10
w: hand and true|To the work you|have to do.|Ev- er to the|right,|
w: par- ents say,|“Why my wish- es|dis- o- bey?”|Ev- er to the|right,|
w: try to shun,|Faith- ful be to|ev- ery one—|Ev- er to the|right,|
w: right pur- sue,|Hon- est be in|all you do—|Ev- er to the|right,|
w: what you can,|Make your mark and|be a man—|Ev- er to the|right,|
w: in your youth,|He’s the Life, the|Way, the Truth—|Ev- er to the|right,|
 [Ge]<[Gc] [FB]>[FA] | [FB]4 ||"^Refrain" [DF]<[DB] z2 | z2 .[DB]2 | [CA]<[Ec] z2 | z2 .[Ec]2 | %16
w: Ev- er to the|right.|||||
w: Ev- er to the|right.|||||
w: Ev- er to the|right.|Ev- er|boys,|ev- er|boys,|
w: Ev- er to the|right.|||||
w: Ev- er to the|right.|||||
w: Ev- er to the|right.|||||
 [Fd]<[Fd] [Gd][_Ad] | .[Ge]2 .[Gc]2 | F<[DF] [EA]>[EA] | [DB]4 |] %20
w: ||||
w: ||||
w: Ev- er to the|right, boys,|Ev- er to the|right.|
w: ||||
w: ||||
w: ||||
V:2
 x4 | x2 F2 | x4 | x4 | x4 | x4 | x4 | x2 (CF) | x4 | x4 | x4 | x4 || x4 | x4 | x4 | x4 | x4 | x4 | %18
 F/ x7/2 | x4 |] %20
V:3
 [B,,D]<[B,,D] [B,,D]>[B,,D] | [B,,D]2 [D,B,]2 | [E,B,]<C [F,C]>[F,C] | [B,,B,]3 z | %4
w: ~ ~ ~ ~|~ ~|~ ~ ~ ~|~|
 [B,,B,][B,,B,] [B,,B,][C,A,] | [D,B,][D,B,] [D,B,]2 | [C,G,][C,G,] [C,G,][D,B,] | %7
w: ~ ~ ~ ~|~ ~ ~|~ ~ ~ ~|
 [E,C][=E,B,] A,2 | [D,B,]<[D,B,] [F,A,]>[F,A,] | B,3 z | [E,B,]<[E,B,] [F,D]>[F,C] | [B,,D]4 || %12
w: ~ ~ ~|~ ~ ~ ~|~|~ ~ ~ ~|~|
 z2 [B,,B,D][B,,B,D] | [B,,B,D]2 z2 | z2 [F,A,][F,A,] | [F,A,]2 z2 | B,<[_A,B,] [G,B,][F,B,] | %17
w: to the|right,|to the|right,||
 .[E,B,]2 .[E,B,]2 | [F,D]<[F,B,] [F,C]>[F,C] | [B,,B,]4 |] %20
w: |||
V:4
 x4 | x4 | x4 | x4 | x4 | x4 | x4 | x2 (F,_E,) | x4 | B,3 x | x4 | x4 || x4 | x4 | x4 | x4 | %16
 B,/ x7/2 | x4 | x4 | x4 |] %20

